X:126
T:Tank,The TS.126
M:2/4
L:1/16
Q:1/4=100
S:Thomas Sands’ MS,1810,Lincolnshire
R:country dance
N:In Westrop’s 120 Country Dances No.33
O:England;Lincolnshire
Z:vmp.Ruairidh Greig, 2011
K:Bb
B2b2 G2g2|c2fe dcB2|def2 efg2|f2a2b4:|
|:d2>e2 f2>d2|g(ee)c c(AA)F|d2>e2 f2>d2|gecAB4:|]

